X:178
T: Die Mordeltern
N: Q0085T
O: Mitteleuropa, Deutschland (BRD) , Baden
N: Verzierungen (Nachschlaege) in den letzten  Zeilen.
R: Ballade, Habgier, Mord, Reue, Selbstmord
M: 3/4
L: 1/16
K: G
D2 | D2G2G6G2 | F2G2A6
G2 | F2G2A4A4 | B2BdB2
GAB2B2 | d3cB2d2 | A4G2
GAB2B2 | d3cB2d2 | A4G2

